packages/ui-icons/svg/Solid/info.svg

<svg viewBox="0 0 1920 1920" version="1.1" xmlns="http://www.w3.org/2000/svg">
    <path d="M960,0 C1490.19336,0 1920,429.80664 1920,960 C1920,1490.19336 1490.19336,1920 960,1920 C429.80664,1920 0,1490.19336 0,960 C0,429.80664 429.80664,0 960,0 Z M1183.79736,707.146565 C1155.26566,677.585511 1115.97092,667.20283 1074.56967,667.692376 C1019.34478,668.348691 960.373192,688.355526 918.189371,708.007305 C817.248366,755.03063 739.795227,838.301886 675.286678,927.318584 C663.671387,943.344495 657.609138,962.264645 678.047119,977.015584 C695.47504,989.596919 708.02485,978.340247 718.536108,967.119169 L719.226234,966.379623 C720.028005,965.517471 720.818082,964.658634 721.597759,963.813978 C733.391648,951.042312 744.790658,937.815142 756.189877,924.577188 L759.039915,921.267733 L759.039915,921.267733 L761.891334,917.959372 C796.122126,878.271788 830.947442,839.154234 877.034686,812.614164 C904.435409,796.835717 924.176579,821.20543 919.947477,848.576975 C917.41216,864.990219 908.782433,880.451269 902.746984,896.32117 C881.306669,952.683529 859.550109,1008.92754 837.88467,1065.2092 C814.144881,1126.90815 790.480133,1188.634 767.458594,1250.60731 C766.792295,1252.40096 766.125864,1254.19395 765.459529,1255.98638 L763.461042,1261.36217 C743.150656,1316.00148 723.141957,1370.2345 709.907428,1427.25814 C699.331992,1472.85048 685.095623,1528.16381 705.549683,1572.95459 C717.331137,1598.75529 742.319824,1616.48654 770.117193,1620.52126 C808.029031,1626.02462 849.022914,1626.65404 886.120019,1618.2134 C905.335902,1613.84514 924.2409,1608.14274 942.690292,1601.2084 C999.335605,1579.91045 1050.91564,1547.06244 1097.37145,1508.45286 C1144.63126,1469.0686 1186.28979,1422.48103 1224.27667,1374.16121 C1236.48693,1358.63023 1251.28075,1341.45846 1255.44017,1321.56459 C1259.34767,1302.90805 1242.6939,1276.26275 1221.11423,1287.09194 C1209.7187,1292.81048 1201.18545,1306.95891 1192.88269,1316.36249 C1182.4627,1328.16002 1171.83902,1339.78539 1161.09742,1351.28166 C1139.60887,1374.26881 1117.5843,1396.74489 1095.46326,1419.11338 C1081.9237,1432.80453 1065.09305,1444.37611 1047.80144,1452.87592 C1026.21104,1463.48455 1009.01591,1451.7193 1011.3529,1427.81224 C1013.49693,1405.85798 1018.86773,1383.66702 1026.39864,1362.88551 C1056.70453,1279.21079 1087.5893,1195.75124 1118.23287,1112.20025 C1137.3898,1059.98558 1156.45024,1007.73864 1175.23195,955.384102 C1192.78621,906.456389 1207.74619,857.921388 1214.06572,806.083297 C1218.42347,770.373328 1209.16661,733.436805 1183.79736,707.146565 Z M1247.51637,305.648817 C1156.17526,270.110997 1047.28526,330.760919 1028.94307,427.405929 C1015.69296,497.190458 1042.27895,558.636565 1096.94103,584.560991 C1202.70611,634.720638 1329.22541,554.607224 1329.23077,437.476592 C1329.23613,372.479931 1300.61867,326.311967 1247.51637,305.648817 Z" stroke="none" stroke-width="1" fill-rule="evenodd"/>
</svg>

<svg viewBox="0 0 1920 1920" xmlns="http://www.w3.org/2000/svg">
    <path d="M960 0c530.193 0 960 429.807 960 960s-429.807 960-960 960S0 1490.193 0 960 429.807 0 960 0Zm223.797 707.147c-28.531-29.561-67.826-39.944-109.227-39.455-55.225.657-114.197 20.664-156.38 40.315-100.942 47.024-178.395 130.295-242.903 219.312-11.616 16.025-17.678 34.946 2.76 49.697 17.428 12.58 29.978 1.324 40.49-9.897l.69-.74c.801-.862 1.591-1.72 2.37-2.565 11.795-12.772 23.194-25.999 34.593-39.237l2.85-3.31 2.851-3.308c34.231-39.687 69.056-78.805 115.144-105.345 27.4-15.778 47.142 8.591 42.912 35.963-2.535 16.413-11.165 31.874-17.2 47.744-21.44 56.363-43.197 112.607-64.862 168.888-23.74 61.7-47.405 123.425-70.426 185.398l-2 5.38-1.998 5.375c-20.31 54.64-40.319 108.872-53.554 165.896-10.575 45.592-24.811 100.906-4.357 145.697 11.781 25.8 36.77 43.532 64.567 47.566 37.912 5.504 78.906 6.133 116.003-2.308 19.216-4.368 38.12-10.07 56.57-17.005 56.646-21.298 108.226-54.146 154.681-92.755 47.26-39.384 88.919-85.972 126.906-134.292 12.21-15.53 27.004-32.703 31.163-52.596 3.908-18.657-12.746-45.302-34.326-34.473-11.395 5.718-19.929 19.867-28.231 29.27-10.42 11.798-21.044 23.423-31.786 34.92-21.488 22.987-43.513 45.463-65.634 67.831-13.54 13.692-30.37 25.263-47.662 33.763-21.59 10.609-38.785-1.157-36.448-25.064 2.144-21.954 7.515-44.145 15.046-64.926 30.306-83.675 61.19-167.135 91.834-250.686 19.157-52.214 38.217-104.461 56.999-156.816 17.554-48.928 32.514-97.463 38.834-149.3 4.357-35.71-4.9-72.647-30.269-98.937Zm63.72-401.498c-91.342-35.538-200.232 25.112-218.574 121.757-13.25 69.784 13.336 131.23 67.998 157.155 105.765 50.16 232.284-29.954 232.29-147.084.005-64.997-28.612-111.165-81.715-131.828Z" fill-rule="evenodd"/>
</svg>
